X:1
T:Une souris verte
C:chanson pour enfants, fichier ABC par Bernard Loffet
L:1/8
Q:350
M:4/4
K:C
 "U -"[G2G,,2] "ne"[G2G,2] "sou -"[G2G,,2] "ris"[A2D,2] | "ver  - "[G2G,,2] G,2 "te"[D2D,,2] D,2 | \
 "Qui"[G2G,,2] "cou -"[G2G,2] "rait"[G2G,,2] "dans"[A2D,2] | "l'her -"[G2G,,2] G,2 "be"[D2D,,2] D,2 | \
 "Je"[c2A,,2] "l'at-"[B2A,2] "trap-"[A2A,,2] "pe"[B2A,2] | "par"[c2D,,2] "la"[B2D,2] "queue"[A2D,,2] D,2 | \
 "Je"[c2A,,2] "la"[B2A,2] "mon-"[A2A,,2] "tr' à"[B2A,2] | "ces"[c2D,,2] "mes-"[B2D,2] "sieurs,"[A2D,,2] D,2 | \
 "Ces"[G2G,,2] "mes-"[G2G,2] "sieurs"[G2G,,2] "me"[A2D,2] | "di-"[G2G,,2] G,2 "sent"[D2D,,2] D,2 | \
 "trem-"[G2G,,2] "pez"[G2G,2] "la"[G2G,,2] "dans"[A2D,2] | "l'hui-"[G2G,,2] G,2 "le,"[D2D,,2] D,2 | \
 "trem-"[G2G,,2] "pez-"[G2G,2] "la"[G2G,,2] "dans"[G2G,2] | "l'eau"[A2D,,2] D,2 "ça"[G2G,,2] "vous"[G2G,2] | \
 "f'ra"[A2D,,2] "un"[A2D,2] "es-"[G2G,,2] "car-"[G2G,2] | "got"[A2D,,2] D,2 "tout"[d2D,,2] D,2 | \
 "chaud !"[G2G,,2] G,2 G,,2 G,2 | \
W:Created with TablEdit http://www.tabledit.com/ by Bernard Loffet
